X:49
T:Porcupine bit, The
S:Carol Turner
R:Other
O:England
M:10/8
C:Wanda Downtown
A:Leeds
K:AMix
eAA eAA B2A2 | eAA eAA dg fg | \
eAA eAA B2A2 | GAB GAB A2A2 :|*
|:eaa a2f g2e2 | eaa a2f g2a2 |\
eaa a2f g2e2 | deg edB A2A2:|**
W:Copyright Wanda Downtown
